X:1
T:Title
%%score { ( 1 3 ) | ( 2 4 ) }
L:1/8
Q:1/4=108
M:4/4
K:G
V:1 treble nm="Grand Piano"
V:3 treble 
V:2 bass 
V:4 bass 
V:1
 G2 G2 G3 D | D-[DA]Bc d2 B2 | [Ge]2 [Ge]2 [Gd]3 [DGB] | [EGB]2 [^CGA]2 [DFA]4 | G2 G2 G3 D | %5
w: I.~H.~Meredith * * *|||||
 D-[DA]Bc d2 B2 | [Ge]2 [Ge]2 [Gd]3 [EAc] | [DGB]2 [CFA]2 G4 | d2 d2 d B3 | %9
w: ||||
 [Ge]2 [Ge]2 [Ge] [Ec]3 | B2 d2 d3 B | [^CGB]2 [CGA]2 [DFA]4 | G2 G2 G3 D | D-[DA]Bc d2 B2 | %14
w: |||||
 [Ge]2 [Ge]2 z4 | [DGB]2 [CFA]2 [B,G]4 |] %16
w: ||
V:2
 G,2 G,2 G,3 D, | z2 [G,D]2[K:treble] z4 | [C,C]2 [E,C]2 [G,B,]3 G, | E,2 A,2 D,4 | %4
 G,2 G,2 G,3 D, | z2 [G,D]2[K:treble] z4 | [C,C]2 [E,C]2 [G,B,]3 C, | D,2 D,2 [G,B,]4 | %8
 [G,B,G]2 [G,B,G]2 [G,B,G] [G,DG]3 | [C,C]2 [C,C]2 [C,C] [C,G,]3 | %10
 [G,D]2[K:treble] [G,B,G]2 [G,B,G]3 [G,DG] | E,2 A,2 D,4 | G,2 G,2 G,3 D, | %13
 z2 [G,D]2[K:treble] z4 | [C,C]2 [E,C]2 [G,B,G]3 C, | D,2 D,2 G,4 |] %16
V:3
 x8 | .[G,G]2 z2 z4 | x8 | x8 | x8 | .[G,G]2 z2 z4 | x8 | x8 | x8 | x8 | x8 | x8 | x8 | %13
 .[G,G]2 z2 z4 | z z/ D,/ z z/ F,/ d3 [EAc] | x8 |] %16
V:4
 x8 | B,,[D,F,] z A,[K:treble] [G,B,G]2 [G,DG]2 | x8 | x8 | x8 | %5
 B,,[D,F,] z A,[K:treble] [G,B,G]2 [G,DG]2 | x8 | x8 | x8 | x8 | x2[K:treble] x6 | x8 | x8 | %13
 B,,[D,F,] z A,[K:treble] [G,B,G]2 [G,DG]2 | x8 | x8 |] %16

